assets/rapha.svg

<?xml version="1.0" encoding="utf-8"?>
<!-- Generator: Adobe Illustrator 15.0.0, SVG Export Plug-In . SVG Version: 6.00 Build 0)  -->
<svg version="1.2" baseProfile="tiny" id="Layer_1" xmlns="http://www.w3.org/2000/svg" xmlns:xlink="http://www.w3.org/1999/xlink"
	 x="0px" y="0px" width="308.858px" height="141.536px" viewBox="0 0 308.858 141.536" xml:space="preserve">
<g>
	<path fill-rule="evenodd" fill="#232A2A" d="M302.035,79.161c-3.785,0-6.837,3.093-6.837,6.857c0,3.769,3.052,6.81,6.837,6.81
		c3.744,0,6.823-3.041,6.823-6.81C308.858,82.254,305.779,79.161,302.035,79.161 M302.035,91.223c-2.885,0-5.205-2.333-5.205-5.205
		c0-2.867,2.32-5.205,5.205-5.205c2.854,0,5.187,2.338,5.187,5.205C307.222,88.89,304.889,91.223,302.035,91.223"/>
	<path fill-rule="evenodd" fill="#232A2A" d="M304.59,84.931v-0.565c0-0.985-0.574-1.971-2.302-1.971h-1.912
		c-0.452,0-0.814,0.368-0.814,0.809v5.63c0,0.454,0.362,0.82,0.814,0.82c0.447,0,0.836-0.366,0.836-0.82v-1.936h0.679l1.035,2.209
		c0.158,0.38,0.407,0.547,0.765,0.547c0.442,0,0.805-0.366,0.805-0.82c0-0.143-0.014-0.253-0.086-0.364l-0.909-1.824
		C304.229,86.333,304.59,85.735,304.59,84.931 M302.962,84.842c0,0.339-0.213,0.645-0.846,0.645h-0.904v-1.625h1.018
		c0.538,0,0.732,0.305,0.732,0.642V84.842z"/>
	<path fill="#232A2A" d="M284.834,81.912c-1.845-1.935-4.183-1.37-6.561,0.287c-1.655,1.149-4.418,1.26-2.885-5.227
		c1.456-6.159,6.769-16.212,7.523-18.012c1.059-2.51-0.307-5.607-4.824-5.982c-1.953-0.145-3.866,0.292-5.77,1.856
		c-2.085-2.367-5.295-4.556-10.441-4.556c-8.355,0-19.863,6.38-26.614,16.658c-3.713,5.557-8.813,11.605-14.538,15.374
		c-1.759,1.18-3.803,1.802-5.064,1.352c-2.604-0.954-1.867-4.779,3.74-11.168c8.989-10.251,11.548-17.96,6.325-22.525
		c-3.554-3.1-9.4-3.45-15.338-0.653c-6.299,2.953-9.87,6.19-13.148,9.539c8.243-17.067,18.534-37.015,25.385-48.225
		c3.156-5.231,3.156-9.71-1.312-10.497c-3.929-0.685-7.927,1.208-11.123,7.909c-7.353,15.406-13.394,29.068-20.588,44.426v-0.027
		c-4.657,9.358-13.23,22.453-24.467,29.871c-1.76,1.18-3.799,1.802-5.064,1.352c-2.632-0.954-1.858-4.779,3.726-11.168
		c8.976-10.251,11.558-17.96,6.335-22.525c-3.567-3.1-9.423-3.45-15.36-0.653c-7.8,3.663-11.408,7.737-15.482,11.933
		c3.428-5.218,3.039-10.021-0.244-11.072c-4.296-1.381-6.534,0.31-10.635,11.908c-2.085,5.682-7.746,16.457-15.781,20.115
		c-1.858,0.844-5.259,1.26-3.717-5.227c1.465-6.159,6.755-16.212,7.51-18.012c1.063-2.51-0.294-5.607-4.793-5.982
		c-1.989-0.145-3.884,0.292-5.765,1.856c-2.094-2.367-5.331-4.556-10.477-4.556c-10.893,0-27.194,10.866-31.231,27.076
		c-1.908,2.76-5.544,5.688-10.188,5.831c-8.32,0.217-12.878-7.144-14.836-15.702c18.72-3.685,36.337-14.117,39.75-30.549
		c3.238-15.56-7.438-29.043-26.615-28.63C25.892,8.85,8.089,27.886,3.83,35.956c-2.984,5.641-0.24,10.178,3.531,9.988
		c2.713-0.111,7.782-1.885,9.392-7.427c2.542-8.792,12.557-18.923,29.536-20.341c12.846-1.083,20.145,7.07,18.955,17.619
		c-1.465,12.889-14.089,20.271-27.121,23.59l-0.032-0.813c-0.027-3.968-0.362-6.667-3.043-7.542
		c0.023-1.404-0.579-2.496-1.976-3.145c-2.193-0.981-5.191-0.87-7.678,2.912c-9.08,13.988-13.493,20.49-22.31,32.046
		c-4.034,5.34-4.156,10.891-0.1,12.039c4.16,1.185,8.058-0.531,11.417-5.903c4.445-7.122,8.166-14.085,11.431-20.031
		c0.886-0.014,1.799-0.068,2.686-0.12c0.574,11.682,6.48,27.769,22.523,25.157c5.892-0.959,9.966-4.074,13.113-7.034
		c2.306,6.552,10.065,8.098,17.815,4.436c7.805-3.671,11.395-7.723,15.469-11.942c-4.708,12.012,4.318,20.836,18.467,9.419
		c0.601-0.504,1.175-0.986,1.736-1.431c-7.081,14.793-15.636,31.268-20.949,42.547c-3.618,7.673-1.94,11.16,2.573,11.526
		c4.503,0.337,7.149-1.996,9.866-8.492c3.654-8.743,10.776-27.754,21.985-49.572c10.694-20.845,24.449-25.968,27.145-24.193
		c2.885,1.865-1.153,6.496-7.263,14.262c-6.683,8.462-6.38,15.469-3.151,18.363c4.065,3.685,11.372,4.33,20.443-3.009
		c2.771-2.252,4.797-4.162,6.43-5.876c-2.845,5.682-3.971,9.896-0.118,11.442c2.568,1.017,5.992,0.28,7.724-3.572
		c2.527-5.648,8.293-15.487,14.623-22.354c8.04-8.725,15.279-10.33,16.943-9.256c2.862,1.865-1.176,6.496-7.303,14.262
		c-6.67,8.462-6.357,15.469-3.147,18.363c4.079,3.685,11.373,4.33,20.452-3.009c2.582-2.08,4.509-3.909,6.082-5.514
		c0.456,9.534,9.445,12.288,18.472,8.037c7.79-3.671,11.408-7.723,15.495-11.942c-4.183,12.623,7.443,20.138,18.888,9.733
		C285.738,86.529,286.159,83.269,284.834,81.912 M84.58,80.486c-4.644,2.894-10.73,1.768-7.949-6.667
		c2.623-7.895,9.509-12.469,13.737-12.469c4.472,0,6.638,2.772,7.909,5.103C95.368,71.087,91.186,76.351,84.58,80.486
		 M251.053,80.486c-4.64,2.894-10.717,1.768-7.945-6.667c2.637-7.895,9.18-12.469,13.416-12.469c4.485,0,6.914,2.792,8.226,5.121
		C261.851,71.087,257.658,76.351,251.053,80.486"/>
</g>
</svg>

<?xml version="1.0" encoding="UTF-8"?>
<svg width="309px" height="142px" viewBox="0 0 309 142" version="1.1" xmlns="http://www.w3.org/2000/svg" xmlns:xlink="http://www.w3.org/1999/xlink">
    <!-- Generator: Sketch 42 (36781) - http://www.bohemiancoding.com/sketch -->
    <title>rapha</title>
    <desc>Created with Sketch.</desc>
    <defs></defs>
    <g id="Page-1" stroke="none" stroke-width="1" fill="none" fill-rule="evenodd">
        <g id="rapha" fill="#FFFFFF">
            <g id="Group">
                <path d="M302.035,79.161 C298.25,79.161 295.198,82.254 295.198,86.018 C295.198,89.787 298.25,92.828 302.035,92.828 C305.779,92.828 308.858,89.787 308.858,86.018 C308.858,82.254 305.779,79.161 302.035,79.161 M302.035,91.223 C299.15,91.223 296.83,88.89 296.83,86.018 C296.83,83.151 299.15,80.813 302.035,80.813 C304.889,80.813 307.222,83.151 307.222,86.018 C307.222,88.89 304.889,91.223 302.035,91.223" id="Shape"></path>
                <path d="M304.59,84.931 L304.59,84.366 C304.59,83.381 304.016,82.395 302.288,82.395 L300.376,82.395 C299.924,82.395 299.562,82.763 299.562,83.204 L299.562,88.834 C299.562,89.288 299.924,89.654 300.376,89.654 C300.823,89.654 301.212,89.288 301.212,88.834 L301.212,86.898 L301.891,86.898 L302.926,89.107 C303.084,89.487 303.333,89.654 303.691,89.654 C304.133,89.654 304.496,89.288 304.496,88.834 C304.496,88.691 304.482,88.581 304.41,88.47 L303.501,86.646 C304.229,86.333 304.59,85.735 304.59,84.931 L304.59,84.931 Z M302.962,84.842 C302.962,85.181 302.749,85.487 302.116,85.487 L301.212,85.487 L301.212,83.862 L302.23,83.862 C302.768,83.862 302.962,84.167 302.962,84.504 L302.962,84.842 Z" id="Shape"></path>
                <path d="M284.834,81.912 C282.989,79.977 280.651,80.542 278.273,82.199 C276.618,83.348 273.855,83.459 275.388,76.972 C276.844,70.813 282.157,60.76 282.911,58.96 C283.97,56.45 282.604,53.353 278.087,52.978 C276.134,52.833 274.221,53.27 272.317,54.834 C270.232,52.467 267.022,50.278 261.876,50.278 C253.521,50.278 242.013,56.658 235.262,66.936 C231.549,72.493 226.449,78.541 220.724,82.31 C218.965,83.49 216.921,84.112 215.66,83.662 C213.056,82.708 213.793,78.883 219.4,72.494 C228.389,62.243 230.948,54.534 225.725,49.969 C222.171,46.869 216.325,46.519 210.387,49.316 C204.088,52.269 200.517,55.506 197.239,58.855 C205.482,41.788 215.773,21.84 222.624,10.63 C225.78,5.399 225.78,0.92 221.312,0.133 C217.383,-0.552 213.385,1.341 210.189,8.042 C202.836,23.448 196.795,37.11 189.601,52.468 L189.601,52.441 C184.944,61.799 176.371,74.894 165.134,82.312 C163.374,83.492 161.335,84.114 160.07,83.664 C157.438,82.71 158.212,78.885 163.796,72.496 C172.772,62.245 175.354,54.536 170.131,49.971 C166.564,46.871 160.708,46.521 154.771,49.318 C146.971,52.981 143.363,57.055 139.289,61.251 C142.717,56.033 142.328,51.23 139.045,50.179 C134.749,48.798 132.511,50.489 128.41,62.087 C126.325,67.769 120.664,78.544 112.629,82.202 C110.771,83.046 107.37,83.462 108.912,76.975 C110.377,70.816 115.667,60.763 116.422,58.963 C117.485,56.453 116.128,53.356 111.629,52.981 C109.64,52.836 107.745,53.273 105.864,54.837 C103.77,52.47 100.533,50.281 95.387,50.281 C84.494,50.281 68.193,61.147 64.156,77.357 C62.248,80.117 58.612,83.045 53.968,83.188 C45.648,83.405 41.09,76.044 39.132,67.486 C57.852,63.801 75.469,53.369 78.882,36.937 C82.12,21.377 71.444,7.894 52.267,8.307 C25.892,8.85 8.089,27.886 3.83,35.956 C0.846,41.597 3.59,46.134 7.361,45.944 C10.074,45.833 15.143,44.059 16.753,38.517 C19.295,29.725 29.31,19.594 46.289,18.176 C59.135,17.093 66.434,25.246 65.244,35.795 C63.779,48.684 51.155,56.066 38.123,59.385 L38.091,58.572 C38.064,54.604 37.729,51.905 35.048,51.03 C35.071,49.626 34.469,48.534 33.072,47.885 C30.879,46.904 27.881,47.015 25.394,50.797 C16.314,64.785 11.901,71.287 3.084,82.843 C-0.95,88.183 -1.072,93.734 2.984,94.882 C7.144,96.067 11.042,94.351 14.401,88.979 C18.846,81.857 22.567,74.894 25.832,68.948 C26.718,68.934 27.631,68.88 28.518,68.828 C29.092,80.51 34.998,96.597 51.041,93.985 C56.933,93.026 61.007,89.911 64.154,86.951 C66.46,93.503 74.219,95.049 81.969,91.387 C89.774,87.716 93.364,83.664 97.438,79.445 C92.73,91.457 101.756,100.281 115.905,88.864 C116.506,88.36 117.08,87.878 117.641,87.433 C110.56,102.226 102.005,118.701 96.692,129.98 C93.074,137.653 94.752,141.14 99.265,141.506 C103.768,141.843 106.414,139.51 109.131,133.014 C112.785,124.271 119.907,105.26 131.116,83.442 C141.81,62.597 155.565,57.474 158.261,59.249 C161.146,61.114 157.108,65.745 150.998,73.511 C144.315,81.973 144.618,88.98 147.847,91.874 C151.912,95.559 159.219,96.204 168.29,88.865 C171.061,86.613 173.087,84.703 174.72,82.989 C171.875,88.671 170.749,92.885 174.602,94.431 C177.17,95.448 180.594,94.711 182.326,90.859 C184.853,85.211 190.619,75.372 196.949,68.505 C204.989,59.78 212.228,58.175 213.892,59.249 C216.754,61.114 212.716,65.745 206.589,73.511 C199.919,81.973 200.232,88.98 203.442,91.874 C207.521,95.559 214.815,96.204 223.894,88.865 C226.476,86.785 228.403,84.956 229.976,83.351 C230.432,92.885 239.421,95.639 248.448,91.388 C256.238,87.717 259.856,83.665 263.943,79.446 C259.76,92.069 271.386,99.584 282.831,89.179 C285.738,86.529 286.159,83.269 284.834,81.912 M84.58,80.486 C79.936,83.38 73.85,82.254 76.631,73.819 C79.254,65.924 86.14,61.35 90.368,61.35 C94.84,61.35 97.006,64.122 98.277,66.453 C95.368,71.087 91.186,76.351 84.58,80.486 M251.053,80.486 C246.413,83.38 240.336,82.254 243.108,73.819 C245.745,65.924 252.288,61.35 256.524,61.35 C261.009,61.35 263.438,64.142 264.75,66.471 C261.851,71.087 257.658,76.351 251.053,80.486" id="Shape" fill-rule="nonzero"></path>
            </g>
        </g>
    </g>
</svg>
